X:1
T:Johnny Schmoker
M:2/4
L:1/8
K:Eb
 EF| G2 G2| GA B2| B2 BB| c2 e2| dc c2| B2 EF| G3 B| AF F2| E2
M:3/4
| G/2G/2 G/2G/2 GB AF|
M:2/4
 F2 E2|
